assets/Dna/Flat/dna_flat.svg

<svg width="32" height="32" viewBox="0 0 32 32" fill="none" xmlns="http://www.w3.org/2000/svg">
<path d="M22.2071 2.29289C22.5976 2.68342 22.5976 3.31658 22.2071 3.70711C22.1576 3.75663 22.1093 3.8059 22.0621 3.85494L25.1036 6.89642V7.53586L24.3964 7.60352L21.407 4.61404C20.9535 5.20815 20.6678 5.76595 20.5 6.29295L23.1035 8.89645V9.66104L22.3964 9.60356L20.2977 7.50493C20.2973 7.52259 20.297 7.54022 20.2969 7.55781C20.2838 8.74298 20.7268 9.90691 21.2942 11.231C21.3427 11.3439 21.3923 11.4586 21.4426 11.5748C21.6359 12.0215 21 13 21 13L22.5859 15C22.6078 15.1433 22.6251 15.2872 22.6372 15.4314C22.773 17.0405 22.2768 18.6374 20.7072 20.207C19.1385 21.7757 17.5232 22.2935 15.8911 22.2176C14.917 22.1723 13.9511 21.9117 13.0391 21.6052L12 22L10.7244 20.78C9.6578 20.4215 8.66684 20.1753 7.66752 20.2178C7.59208 20.2211 7.51619 20.2259 7.43981 20.2327L9.60355 22.3964L9.5 23.1035H8.89644L6.27604 20.4831C5.83509 20.6371 5.37806 20.8665 4.90271 21.1956L7.85355 24.1464V24.7507L7.14644 24.8535L4.11423 21.8213C3.97997 21.9415 3.84427 22.0699 3.70711 22.2071C3.31658 22.5976 2.68342 22.5976 2.29289 22.2071C1.90237 21.8166 1.90237 21.1834 2.29289 20.7929C4.07114 19.0146 5.83162 18.2942 7.58248 18.2197C8.41989 18.184 9.22981 18.2988 10 18.4841L11 18C11 18 12.2557 19.1994 12.2751 19.2064L12.5293 19.2992C13.6162 19.6962 14.5563 20.0395 15.4625 20.1695L13.6465 18.3535V17.6464H14.3536L16.8756 20.1684C17.4505 20.0688 18.0376 19.8267 18.6513 19.3583L15.6465 16.3535L15.5838 15.6464H16.3536L19.3955 18.6883C20.0542 18.0029 20.4019 17.3686 20.5565 16.7635L17.8965 14.1036V13.3965H18.6036L20.6253 15.4182C20.5702 14.9759 20.451 14.5297 20.2893 14.0626L20.6253 12.3828L19.456 12.0188C18.8984 10.7179 18.2788 9.19441 18.297 7.53586C18.3159 5.80998 19.0156 4.07023 20.7929 2.29289C21.1834 1.90237 21.8166 1.90237 22.2071 2.29289Z" fill="#F8312F"/>
<path d="M24.3965 7.60359L27.3881 10.5953C26.8042 11.0465 26.2539 11.3417 25.7325 11.5254L23.1036 8.89652L22.3965 9.60362L24.5656 11.7727C24.5132 11.7768 24.461 11.7799 24.4092 11.7822C23.218 11.8346 22.0522 11.4438 20.731 10.9405C20.6181 10.8975 20.5036 10.8535 20.3876 10.8088C19.2187 10.3589 17.8913 9.84789 16.5325 9.78241C14.9355 9.70544 13.3537 10.232 11.7929 11.7929C10.2404 13.3454 9.68408 14.9123 9.70317 16.4964C9.71129 17.1704 9.82592 17.8372 9.98762 18.4811C10.7766 18.67 11.5241 18.9333 12.2168 19.1852L12.2915 19.2124C11.9627 18.2114 11.7135 17.3406 11.703 16.4723C11.7028 16.4515 11.7027 16.4307 11.7027 16.4098L13.6465 18.3536L14.3536 17.6465L11.8962 15.1891C12.068 14.6737 12.3702 14.1381 12.865 13.5721L15.6465 16.3536L16.3536 15.6465L13.5726 12.8655C14.2995 12.2339 14.9731 11.9339 15.618 11.8252L17.8965 14.1036L18.6036 13.3965L17.0568 11.8497C17.8796 11.9912 18.7331 12.3177 19.7237 12.6967L19.7267 12.6978C19.8228 12.7346 19.9202 12.7719 20.019 12.8095C21.3227 13.3062 22.8445 13.8529 24.497 13.7803C26.2088 13.705 27.9359 12.9783 29.7071 11.2071C30.0976 10.8166 30.0976 10.1834 29.7071 9.79289C29.3166 9.40237 28.6834 9.40237 28.2929 9.79289C28.2434 9.84239 28.1941 9.89074 28.1451 9.93797L25.1036 6.89648L24.3965 7.60359Z" fill="#46A4FB"/>
<path d="M12 21.5L11.0333 21.8335C11.2588 22.6353 11.4018 23.3971 11.3741 24.167L9.60359 22.3965L8.89648 23.1036L11.1765 25.3836C11.0421 25.8355 10.8305 26.3086 10.5128 26.8057L7.85359 24.1465L7.14648 24.8536L9.91207 27.6192C9.72781 27.8391 9.52212 28.0636 9.29286 28.2929C8.90234 28.6834 8.90234 29.3166 9.29286 29.7071C9.68339 30.0976 10.3166 30.0976 10.7071 29.7071C12.4723 27.9419 13.2258 26.2271 13.3564 24.5298C13.3995 23.9697 13.373 23.4243 13.3022 22.8969L12 21.5Z" fill="#46A4FB"/>
<path d="M10.7034 20.7727C10.8269 21.1453 10.9418 21.5061 11.0404 21.8592C11.6816 22.309 12.4887 22.7503 13.3057 22.9234C13.2462 22.4706 13.1538 22.0311 13.0443 21.6069C12.649 21.4741 12.2638 21.3326 11.8925 21.1963C11.7714 21.1518 11.6513 21.1077 11.5333 21.0648C11.2509 20.9621 10.9746 20.8636 10.7034 20.7727C10.7034 20.7728 10.7033 20.7727 10.7034 20.7727Z" fill="#0084CE"/>
<path d="M19.7517 12.7074C19.8397 12.7411 19.9288 12.7751 20.019 12.8095C20.6979 13.0681 21.4357 13.3403 22.2204 13.5315C22.383 14.0214 22.516 14.5246 22.5911 15.0342C21.9935 14.5647 20.9787 14.2307 20.29 14.0643C20.1412 13.6342 19.9561 13.1864 19.7517 12.7074Z" fill="#CA0B4A"/>
</svg>

<svg xmlns="http://www.w3.org/2000/svg" width="32" height="32" fill="none"><path fill="#F8312F" d="M22.207 2.293a1 1 0 0 1 0 1.414l-.145.148 3.042 3.041v.64l-.708.068-2.989-2.99c-.454.594-.74 1.152-.907 1.679l2.604 2.603v.765l-.708-.057-2.098-2.1-.001.054c-.013 1.185.43 2.349.997 3.673l.149.344C21.636 12.022 21 13 21 13l1.586 2c.022.143.04.287.051.431.136 1.61-.36 3.206-1.93 4.776-1.569 1.569-3.184 2.087-4.816 2.01-.974-.045-1.94-.305-2.852-.612L12 22l-1.276-1.22c-1.066-.358-2.057-.605-3.056-.562a5.06 5.06 0 0 0-.228.015l2.164 2.163-.104.707h-.604l-2.62-2.62c-.44.154-.898.383-1.373.713l2.95 2.95v.605l-.707.102-3.032-3.032c-.134.12-.27.249-.407.386a1 1 0 0 1-1.414-1.414c1.778-1.778 3.539-2.499 5.29-2.573.837-.036 1.647.079 2.417.264L11 18s1.256 1.2 1.275 1.206l.254.093c1.087.397 2.027.74 2.934.87l-1.816-1.816v-.707h.707l2.522 2.522c.575-.1 1.162-.341 1.775-.81l-3.005-3.005-.062-.707h.77l3.041 3.042c.66-.685 1.007-1.32 1.162-1.924l-2.66-2.66v-.707h.707l2.021 2.021a6.682 6.682 0 0 0-.336-1.355l.336-1.68-1.169-.364c-.558-1.301-1.177-2.825-1.159-4.483.019-1.726.719-3.466 2.496-5.243a1 1 0 0 1 1.414 0Z"/><path fill="#46A4FB" d="m24.396 7.604 2.992 2.991c-.584.451-1.134.747-1.655.93l-2.63-2.628-.707.707 2.17 2.169a4.65 4.65 0 0 1-.157.01c-1.191.052-2.357-.34-3.678-.842a94.482 94.482 0 0 1-.343-.132c-1.17-.45-2.497-.961-3.856-1.027-1.597-.077-3.178.45-4.74 2.01-1.552 1.553-2.108 3.12-2.089 4.704.008.674.123 1.341.285 1.985.789.189 1.536.452 2.229.704l.074.027c-.328-1-.578-1.871-.588-2.74v-.062l1.944 1.944.707-.707-2.458-2.458c.172-.515.474-1.05.969-1.617l2.781 2.782.708-.707-2.781-2.781c.726-.632 1.4-.932 2.045-1.04l2.278 2.278.708-.707-1.547-1.547c.823.141 1.676.468 2.667.847h.003l.292.113c1.304.496 2.826 1.043 4.478.97 1.712-.075 3.439-.802 5.21-2.573a1 1 0 0 0-1.414-1.414l-.148.145-3.041-3.042-.707.708ZM12 21.5l-.967.334c.226.801.369 1.563.341 2.333l-1.77-1.77-.708.707 2.28 2.28a5.595 5.595 0 0 1-.663 1.422l-2.66-2.66-.707.708 2.766 2.765c-.184.22-.39.445-.62.674a1 1 0 1 0 1.415 1.414c1.765-1.765 2.519-3.48 2.65-5.177a7.763 7.763 0 0 0-.055-1.633L12 21.5Z"/><path fill="#0084CE" d="M10.703 20.773c.124.372.239.733.337 1.086.642.45 1.449.891 2.266 1.064-.06-.452-.152-.892-.262-1.316-.395-.133-.78-.274-1.152-.41a34.806 34.806 0 0 0-1.19-.424h.001Z"/><path fill="#CA0B4A" d="m19.752 12.707.267.102c.679.26 1.417.531 2.201.723.163.49.296.993.371 1.502-.598-.47-1.612-.803-2.301-.97-.149-.43-.334-.878-.538-1.357Z"/></svg>
